svgs/sharp-light/keyboard-brightness-low.svg

<svg xmlns="http://www.w3.org/2000/svg" viewBox="0 0 640 512"><!--! Font Awesome Pro 6.6.0 by @fontawesome - https://fontawesome.com License - https://fontawesome.com/license (Commercial License) Copyright 2024 Fonticons, Inc. --><path d="M336 128l-32 0 0 32 32 0 0-32zM121.4 208L144 230.6 166.6 208 144 185.4 121.4 208zM96 384l-32 0 0 32 32 0 0-32zm112 0l-16 0 0 32 16 0 224 0 16 0 0-32-16 0-224 0zm368 0l-32 0 0 32 32 0 0-32zM473.4 208L496 230.6 518.6 208 496 185.4 473.4 208z"/></svg>

<svg xmlns="http://www.w3.org/2000/svg" viewBox="0 0 640 512"><!--! Font Awesome Pro 6.4.0 by @fontawesome - https://fontawesome.com License - https://fontawesome.com/license (Commercial License) Copyright 2023 Fonticons, Inc. --><path d="M336 128H304v32h32V128zM121.4 208L144 230.6 166.6 208 144 185.4 121.4 208zM96 384H64v32H96V384zm112 0H192v32h16H432h16V384H432 208zm368 0H544v32h32V384zM473.4 208L496 230.6 518.6 208 496 185.4 473.4 208z"/></svg>
